#ifndef USERPREFS_HAS_SPLASH
#define icon_width  50
#define icon_height 28
static unsigned char icon_bits[] = {
 0x00,0x00,0x00,0x00,0x00,0x00,0xfc,0x00,0x00,0x00,0x00,0x00,
 0x00,0xfc,0x00,0x00,0x00,0x00,0x00,0x00,0xfc,0x00,0x00,0x00,
 0x00,0x00,0x00,0xfc,0x00,0x00,0x00,0x00,0x00,0x00,0xfc,0x00,
 0x00,0x00,0x00,0x00,0x00,0xfc,0x00,0x00,0x00,0x00,0x00,0x00,
 0xfc,0x00,0x00,0x00,0x00,0x00,0xff,0xff,0x00,0x00,0x00,0x40,
 0x77,0xff,0xff,0x00,0x00,0x80,0x69,0x51,0xfe,0xfd,0x80,0x07,
 0xc8,0xa9,0x5b,0xc0,0xfd,0xe0,0x07,0x6c,0xbc,0x78,0xc0,0xfc,
 0xf0,0xf1,0x6c,0x8c,0x3f,0xe0,0xfc,0xf8,0x78,0x6a,0x9e,0x7b,
 0xe0,0xfc,0x38,0x67,0xea,0x3b,0x68,0x60,0xfc,0xfc,0x67,0xce,
 0xed,0xc9,0x70,0xfc,0xfc,0x6f,0x0f,0xcc,0x01,0x70,0xfc,0x78,
 0x6e,0x0b,0x83,0x00,0x30,0xfc,0x00,0x2f,0x8b,0xe7,0x45,0x38,
 0xfc,0x80,0x07,0xc0,0x20,0x6d,0x38,0xfc,0xf0,0x07,0xc0,0x10,
 0x3d,0x18,0xfc,0xfe,0x03,0xc0,0x94,0x34,0x1c,0xfc,0xfe,0x00,
 0x80,0xf7,0x36,0x0c,0xfc,0x3e,0x00,0x00,0x61,0x36,0x0c,0xfc,
 0x00,0x00,0x00,0x00,0x16,0x04,0xfc,0x00,0x00,0x00,0x00,0x00,
 0x00,0xfc,0x00,0x00,0x00,0x00,0x00,0x00,0xfc,0x00,0x00,0x00,
 0x00,0x00,0x00,0xfc};
#endif